svg/u1f408.svg

<svg viewBox="0 0 128 128" xmlns="http://www.w3.org/2000/svg">
  <path d="M19.7,45.67c-0.04,0-0.08,0-0.12-0.01c-0.06-0.01-1.56-0.18-4.11-0.64 c-2.78-0.51-4.61-0.72-4.63-0.72c-0.6-0.07-1.04-0.61-0.97-1.22c0.07-0.6,0.62-1.04,1.22-0.97c0.08,0.01,1.92,0.22,4.78,0.74 c2.47,0.45,3.95,0.62,3.96,0.62c0.6,0.07,1.04,0.61,0.97,1.22C20.73,45.25,20.25,45.67,19.7,45.67z" fill="#888071"/>
  <path d="M10.78,50.08c-0.55,0-1.03-0.41-1.09-0.97c-0.07-0.6,0.36-1.15,0.97-1.22 c0.03,0,2.81-0.33,4.22-0.56c1.46-0.23,4.74-0.75,4.74-0.75l0.34,2.17c0,0-3.28,0.52-4.73,0.75c-1.46,0.24-4.2,0.56-4.32,0.57 C10.86,50.07,10.82,50.08,10.78,50.08z" fill="#888071"/>
  <path d="M12.51,54.68c-0.48,0-0.92-0.31-1.06-0.8c-0.17-0.58,0.17-1.19,0.76-1.36l7.88-2.25 c0.59-0.16,1.19,0.17,1.36,0.76c0.17,0.58-0.17,1.19-0.76,1.36l-7.88,2.25C12.72,54.66,12.61,54.68,12.51,54.68z" fill="#888071"/>
  <path d="M53.29,84.41l-10.84,8.31c0,0,0.42,17.32,0.14,18.02c-0.28,0.7-4.08,5.07-3.66,7.6 c0.33,1.97,1.83,2.67,5.91,2.82s12.39-1.69,12.39-1.69L53.29,84.41z" fill="#B85C3E"/>
  <path d="M85.11,91.02l-8.02,4.5c0,0,1.13,3.38,1.13,8.17s-0.42,7.79-0.7,8.78c-0.28,0.99-2.63,2.86-2.39,5.58 c0.11,1.26,1.69,2.25,4.5,2.11s6.9-0.42,6.9-0.42l4.08-26.61L85.11,91.02z" fill="#B85C3E"/>
  <path d="M33.26,27.81c0,0-1.31-4.6-0.19-11.92c1.13-7.32,3-11.17,4.79-11.36c1.78-0.19,5.16,3.19,7.79,7.23 c2.63,4.04,4.79,11.17,4.79,11.17L33.26,27.81z" fill="#FB8B02"/>
  <path d="M63.85,97.26c0,0,0.09,8.45,0.28,12.2c0.19,3.75,0.01,12.08-0.75,13c-1.17,1.41-2.35,1.45-4.88,1.55 c-1.51,0.06,0.47-9.29,0.47-9.67s0.09-22.81,0.09-22.81L63.85,97.26z" fill="#FB8B02"/>
  <path d="M38.79,68.08c0,0-2.25,7.13-1.69,12.48c0.56,5.35,3.66,12.11,6.76,14.83s5.91,4.13,6.19,4.79 c0.28,0.66,1.41,9.95,1.03,11.92s-3.1,7.04-2.63,9.01c0.47,1.97,2.33,3.21,7.13,3.1c6.24-0.14,5.91-1.08,6.38-4.97 c0.32-2.62-0.09-20.74-0.09-20.74s3.85,0.38,9.29,0c5.44-0.38,12.2-2.82,12.2-2.82s3.85,12.01,2.53,15.67 c-1.31,3.66-3.47,5.73-3.1,8.26c0.38,2.53,3.66,3.66,7.7,3.28c4.04-0.38,7.13-3,7.32-6.48c0.19-3.47,0.09-22.71,0.66-24.21 c0.56-1.5,2.63-6.66,2.44-11.83s-0.56-7.23-0.56-7.23s4.85-1.85,9.34-5.25c3.42-2.59,5.99-6,7.36-11.08 c2.25-8.35-0.84-16.61-7.04-19.43c-5.96-2.71-11.83-1.69-12.01,2.63s3.66,3.38,6.57,4.5c2.91,1.13,6.19,6.29,2.72,11.36 c-3.47,5.07-9.57,6.66-11.45,6.85c-1.88,0.19-5.35-2.72-12.58-2.91c-7.23-0.19-17.64,5.07-17.93,4.41 c-0.28-0.66,10.32-7.51,11.07-16.42c0.7-8.26-1.03-12.11-1.03-12.11s-1.31-13.98-3.19-20.55S67.7,3.69,66.01,3.79 c-1.69,0.09-7.13,6.01-9.1,8.92s-4.13,7.6-4.13,7.6s-8.4-0.31-12.11,1.03c-3.38,1.22-7.23,3.28-9.67,7.13s-3.19,6.1-4.32,6.66 c-1.13,0.56-6.48,1.69-6.95,2.35c-0.47,0.66-1.69,9.39-1.41,10.7s0.5,4.37,2.06,6.1c1.78,1.97,6.71,5.3,10.61,7.79 C34.76,64.47,38.42,66.39,38.79,68.08z" fill="#FFB800"/>
  <path d="M73.38,77.27c3.47-0.05,3.38-4.22,3.43-9.39c0.04-4.52-0.14-7.18-0.14-7.18s-1.99,0.27-3.75,0.94 c-1.74,0.66-3.24,1.27-3.24,1.27s0,5.11,0,7.27C69.67,72.67,69.95,77.32,73.38,77.27z" fill="#FF9B31"/>
  <path d="M79.48,60.05c0,0,0,4.36,0.05,8.07c0.05,3.99-0.33,8.31,3.66,8.26c3.43-0.04,3.43-4.41,3.47-9.34 c0.02-2.58,0.09-6.99,0.09-6.99s-1.69-0.33-3.71-0.28C81.45,59.81,79.48,60.05,79.48,60.05z" fill="#FF9B31"/>
  <path d="M44.81,41.02c-0.73,1.77-2.3,4.3-4.89,3.64c-1.66-0.42-1.78-3.99-0.81-6.11 c1.15-2.5,2.68-3.63,4.47-3.42C45.55,35.37,45.74,38.75,44.81,41.02z" fill="#2C312C"/>
  <path d="M27.67,40.48c-0.05-1.13-2.96-1.92-5.21-2.77c-1.91-0.71-2.96-0.75-3.47-0.28s-1.13,1.69-1.41,3.57 s-0.18,5.06,0.28,7.04c0.47,2.02,1.22,4.55,4.55,5.87c2.86,1.13,4.55-0.42,5.77-1.27c1.55-1.07,0.88-3.61-1.31-2.3 c-1.64,0.99-2.77,1.27-4.04,0.33c-1.74-1.29-2.16-5.11-2.02-5.44c0.61-1.43,3.05-1.78,4.04-2.16 C25.84,42.69,27.72,41.47,27.67,40.48z" fill="#2C312C"/>
  <path d="M47.34,50.45c-0.03,0-0.05,0-0.08,0c-0.03,0-3.19-0.23-5.16-0.28c-2.02-0.05-5.63-0.14-5.63-0.14 s-1.18,0.1-1.18-1.06c0-1.23,1.23-1.04,1.23-1.04s3.61,0.09,5.63,0.14c2.02,0.05,5.13,0.27,5.26,0.28 c0.58,0.04,1.01,0.55,0.97,1.12C48.34,50.03,47.88,50.45,47.34,50.45z" fill="#888071"/>
  <path d="M45.55,57.3c-0.15,0-0.31-0.03-0.45-0.1c-0.02-0.01-2.51-1.2-4.76-1.97 c-2.34-0.79-4.96-1.64-4.96-1.64c-0.55-0.18-0.86-0.77-0.68-1.32c0.18-0.55,0.77-0.86,1.32-0.68c0,0,2.64,0.85,4.99,1.65 c2.38,0.81,4.89,2.01,5,2.07c0.52,0.25,0.74,0.88,0.49,1.4C46.32,57.08,45.94,57.3,45.55,57.3z" fill="#888071"/>
  <path d="M40.44,61.2c-0.2,0-0.41-0.06-0.59-0.18c-0.02-0.01-1.78-1.21-2.96-1.94 c-1.23-0.75-3.44-2.17-3.44-2.17s-0.99-0.58-0.35-1.5s1.48-0.28,1.48-0.28c0,0,2.2,1.4,3.41,2.15c1.23,0.75,2.97,1.95,3.05,2 c0.48,0.33,0.6,0.98,0.27,1.46C41.1,61.04,40.77,61.2,40.44,61.2z" fill="#888071"/>
  <path d="M64.35,12.33c-0.48-0.17-3.59,3.45-5.14,7.04c-1.55,3.59-2.11,5.56-1.97,6.19 c0.06,0.28,1.85,1.83,4.5,3.94c2.75,2.18,4.5,3.52,5.28,3.45c0.77-0.07,0.99-6.05,0.35-11.47S65.12,12.61,64.35,12.33z" fill="#FED0AB"/>
</svg>

<svg viewBox="0 0 128 128" xmlns="http://www.w3.org/2000/svg">
  <defs/>
  <path d="M19.7,45.67 C19.66,45.67 19.62,45.67 19.58,45.66 C19.52,45.65 18.02,45.48 15.47,45.02 C12.69,44.51 10.86,44.3 10.84,44.3 C10.24,44.23 9.8,43.69 9.87,43.08 C9.94,42.48 10.49,42.04 11.09,42.11 C11.17,42.12 13.01,42.33 15.87,42.85 C18.34,43.3 19.82,43.47 19.83,43.47 C20.43,43.54 20.87,44.08 20.8,44.69 C20.73,45.25 20.25,45.67 19.7,45.67 Z" fill="#888071"/>
  <path d="M10.78,50.08 C10.23,50.08 9.75,49.67 9.69,49.11 C9.62,48.51 10.05,47.96 10.66,47.89 C10.69,47.89 13.47,47.56 14.88,47.33 C16.34,47.1 19.62,46.58 19.62,46.58 L19.96,48.75 C19.96,48.75 16.68,49.27 15.23,49.5 C13.77,49.74 11.03,50.06 10.91,50.07 C10.86,50.07 10.82,50.08 10.78,50.08 Z" fill="#888071"/>
  <path d="M12.51,54.68 C12.03,54.68 11.59,54.37 11.45,53.88 C11.28,53.3 11.62,52.69 12.21,52.52 L20.09,50.27 C20.68,50.11 21.28,50.44 21.45,51.03 C21.62,51.61 21.28,52.22 20.69,52.39 L12.81,54.64 C12.72,54.66 12.61,54.68 12.51,54.68 Z" fill="#888071"/>
  <path d="M53.29,84.41 L42.45,92.72 C42.45,92.72 42.87,110.04 42.59,110.74 C42.31,111.44 38.51,115.81 38.93,118.34 C39.26,120.31 40.76,121.01 44.84,121.16 C48.92,121.31 57.23,119.47 57.23,119.47 L53.29,84.41 Z" fill="#B85C3E"/>
  <path d="M85.11,91.02 L77.09,95.52 C77.09,95.52 78.22,98.9 78.22,103.69 C78.22,108.48 77.8,111.48 77.52,112.47 C77.24,113.46 74.89,115.33 75.13,118.05 C75.24,119.31 76.82,120.3 79.63,120.16 C82.44,120.02 86.53,119.74 86.53,119.74 L90.61,93.13 L85.11,91.02 Z" fill="#B85C3E"/>
  <path d="M33.26,27.81 C33.26,27.81 31.95,23.21 33.07,15.89 C34.2,8.57 36.07,4.72 37.86,4.53 C39.64,4.34 43.02,7.72 45.65,11.76 C48.28,15.8 50.44,22.93 50.44,22.93 L33.26,27.81 Z" fill="#FB8B02"/>
  <path d="M63.85,97.26 C63.85,97.26 63.94,105.71 64.13,109.46 C64.32,113.21 64.14,121.54 63.38,122.46 C62.21,123.87 61.03,123.91 58.5,124.01 C56.99,124.07 58.97,114.72 58.97,114.34 C58.97,113.96 59.06,91.53 59.06,91.53 L63.85,97.26 Z" fill="#FB8B02"/>
  <path d="M38.79,68.08 C38.79,68.08 36.54,75.21 37.1,80.56 C37.66,85.91 40.76,92.67 43.86,95.39 C46.96,98.11 49.77,99.52 50.05,100.18 C50.33,100.84 51.46,110.13 51.08,112.1 C50.7,114.07 47.98,119.14 48.45,121.11 C48.92,123.08 50.78,124.32 55.58,124.21 C61.82,124.07 61.49,123.13 61.96,119.24 C62.28,116.62 61.87,98.5 61.87,98.5 C61.87,98.5 65.72,98.88 71.16,98.5 C76.6,98.12 83.36,95.68 83.36,95.68 C83.36,95.68 87.21,107.69 85.89,111.35 C84.58,115.01 82.42,117.08 82.79,119.61 C83.17,122.14 86.45,123.27 90.49,122.89 C94.53,122.51 97.62,119.89 97.81,116.41 C98,112.94 97.9,93.7 98.47,92.2 C99.03,90.7 101.1,85.54 100.91,80.37 C100.72,75.2 100.35,73.14 100.35,73.14 C100.35,73.14 105.2,71.29 109.69,67.89 C113.11,65.3 115.68,61.89 117.05,56.81 C119.3,48.46 116.21,40.2 110.01,37.38 C104.05,34.67 98.18,35.69 98,40.01 C97.82,44.33 101.66,43.39 104.57,44.51 C107.48,45.64 110.76,50.8 107.29,55.87 C103.82,60.94 97.72,62.53 95.84,62.72 C93.96,62.91 90.49,60 83.26,59.81 C76.03,59.62 65.62,64.88 65.33,64.22 C65.05,63.56 75.65,56.71 76.4,47.8 C77.1,39.54 75.37,35.69 75.37,35.69 C75.37,35.69 74.06,21.71 72.18,15.14 C70.3,8.57 67.7,3.69 66.01,3.79 C64.32,3.88 58.88,9.8 56.91,12.71 C54.94,15.62 52.78,20.31 52.78,20.31 C52.78,20.31 44.38,20 40.67,21.34 C37.29,22.56 33.44,24.62 31,28.47 C28.56,32.32 27.81,34.57 26.68,35.13 C25.55,35.69 20.2,36.82 19.73,37.48 C19.26,38.14 18.04,46.87 18.32,48.18 C18.6,49.49 18.82,52.55 20.38,54.28 C22.16,56.25 27.09,59.58 30.99,62.07 C34.76,64.47 38.42,66.39 38.79,68.08 Z" fill="#FFB800"/>
  <path d="M73.38,77.27 C76.85,77.22 76.76,73.05 76.81,67.88 C76.85,63.36 76.67,60.7 76.67,60.7 C76.67,60.7 74.68,60.97 72.92,61.64 C71.18,62.3 69.68,62.91 69.68,62.91 C69.68,62.91 69.68,68.02 69.68,70.18 C69.67,72.67 69.95,77.32 73.38,77.27 Z" fill="#FF9B31"/>
  <path d="M79.48,60.05 C79.48,60.05 79.48,64.41 79.53,68.12 C79.58,72.11 79.2,76.43 83.19,76.38 C86.62,76.34 86.62,71.97 86.66,67.04 C86.68,64.46 86.75,60.05 86.75,60.05 C86.75,60.05 85.06,59.72 83.04,59.77 C81.45,59.81 79.48,60.05 79.48,60.05 Z" fill="#FF9B31"/>
  <path d="M44.81,41.02 C44.08,42.79 42.51,45.32 39.92,44.66 C38.26,44.24 38.14,40.67 39.11,38.55 C40.26,36.05 41.79,34.92 43.58,35.13 C45.55,35.37 45.74,38.75 44.81,41.02 Z" fill="#2C312C"/>
  <path d="M27.67,40.48 C27.62,39.35 24.71,38.56 22.46,37.71 C20.55,37 19.5,36.96 18.99,37.43 C18.48,37.9 17.86,39.12 17.58,41 C17.3,42.88 17.4,46.06 17.86,48.04 C18.33,50.06 19.08,52.59 22.41,53.91 C25.27,55.04 26.96,53.49 28.18,52.64 C29.73,51.57 29.06,49.03 26.87,50.34 C25.23,51.33 24.1,51.61 22.83,50.67 C21.09,49.38 20.67,45.56 20.81,45.23 C21.42,43.8 23.86,43.45 24.85,43.07 C25.84,42.69 27.72,41.47 27.67,40.48 Z" fill="#2C312C"/>
  <path d="M47.34,50.45 C47.31,50.45 47.29,50.45 47.26,50.45 C47.23,50.45 44.07,50.22 42.1,50.17 C40.08,50.12 36.47,50.03 36.47,50.03 C36.47,50.03 35.29,50.13 35.29,48.97 C35.29,47.74 36.52,47.93 36.52,47.93 C36.52,47.93 40.13,48.02 42.15,48.07 C44.17,48.12 47.28,48.34 47.41,48.35 C47.99,48.39 48.42,48.9 48.38,49.47 C48.34,50.03 47.88,50.45 47.34,50.45 Z" fill="#888071"/>
  <path d="M45.55,57.3 C45.4,57.3 45.24,57.27 45.1,57.2 C45.08,57.19 42.59,56 40.34,55.23 C38,54.44 35.38,53.59 35.38,53.59 C34.83,53.41 34.52,52.82 34.7,52.27 C34.88,51.72 35.47,51.41 36.02,51.59 C36.02,51.59 38.66,52.44 41.01,53.24 C43.39,54.05 45.9,55.25 46.01,55.31 C46.53,55.56 46.75,56.19 46.5,56.71 C46.32,57.08 45.94,57.3 45.55,57.3 Z" fill="#888071"/>
  <path d="M40.44,61.2 C40.24,61.2 40.03,61.14 39.85,61.02 C39.83,61.01 38.07,59.81 36.89,59.08 C35.66,58.33 33.45,56.91 33.45,56.91 C33.45,56.91 32.46,56.33 33.1,55.41 C33.74,54.49 34.58,55.13 34.58,55.13 C34.58,55.13 36.78,56.53 37.99,57.28 C39.22,58.03 40.96,59.23 41.04,59.28 C41.52,59.61 41.64,60.26 41.31,60.74 C41.1,61.04 40.77,61.2 40.44,61.2 Z" fill="#888071"/>
  <path d="M64.35,12.33 C63.87,12.16 60.76,15.78 59.21,19.37 C57.66,22.96 57.1,24.93 57.24,25.56 C57.3,25.84 59.09,27.39 61.74,29.5 C64.49,31.68 66.24,33.02 67.02,32.95 C67.79,32.88 68.01,26.9 67.37,21.48 C66.73,16.06 65.12,12.61 64.35,12.33 Z" fill="#FED0AB"/>
</svg>
